packages/foundations/assets/icons/functional/images/transportation/airplane_24.svg

<svg width="24" height="24" viewBox="0 0 24 24" fill="none" xmlns="http://www.w3.org/2000/svg">
<g clip-path="url(#clip0_187_816)">
<path fill-rule="evenodd" clip-rule="evenodd" d="M14.5763 7.28381C17.5414 6.32925 21.3248 7.38626 22.036 9.76229C22.4926 11.2802 21.4635 13.0826 19.7608 13.6079C18.6209 13.9666 17.4803 14.3241 16.3388 14.6806L13.5133 19.8468C13.3183 20.1704 12.8279 20.5658 12.4479 20.6547C12.2866 20.6997 12.1225 20.7403 11.9555 20.7765C10.951 20.9774 9.9267 20.2095 9.91477 19.0813C9.90643 18.2921 9.89944 17.5028 9.8938 16.7136L8.05879 17.2758C6.19517 17.7793 4.25963 16.7855 3.61869 14.9892L1.92624 10.2331C1.69408 9.46246 2.04985 8.63453 2.76257 8.27135L3.37063 8.02141C4.03768 7.74391 4.85954 7.80754 5.50546 8.32247C6.04645 8.74935 6.58556 9.17738 7.1228 9.60656L14.5763 7.28381ZM17.6227 8.97682C16.9401 8.88959 15.9191 8.92984 15.1803 9.19041C13.6291 9.67087 10.9734 10.4985 7.21328 11.6734C6.93685 11.7596 6.59065 11.7328 6.29401 11.5019C5.61346 10.9648 4.93534 10.4265 4.25963 9.88704C4.22837 9.86208 4.20185 9.85311 4.16541 9.8606L3.9448 9.94556L5.50399 14.3216C5.77549 15.0928 6.62679 15.6243 7.65397 15.3098L10.589 14.4078C11.1909 14.2228 11.9098 14.6806 11.8827 15.3551C11.8939 16.4402 11.9029 17.5254 11.9098 18.6106L14.7784 13.3669C14.8818 13.1777 15.0941 12.9745 15.3566 12.8925L19.1677 11.6979C19.8353 11.4925 20.3751 10.7434 20.0388 10.1586L18.61 10.682C18.0914 10.8721 17.517 10.6057 17.327 10.0872C17.1913 9.71677 17.2657 9.27886 17.6227 8.97682ZM9.52043 12.56C9.68944 13.085 9.40044 13.649 8.87544 13.818C8.34944 13.988 7.78644 13.699 7.61743 13.172C7.44743 12.647 7.73643 12.083 8.26243 11.914C8.78843 11.745 9.35143 12.034 9.52043 12.56ZM12.6297 11.5581C12.7987 12.0831 12.5097 12.6471 11.9847 12.8171C11.4587 12.9861 10.8957 12.6971 10.7267 12.1711C10.5567 11.6461 10.8457 11.0821 11.3717 10.9121C11.8977 10.7441 12.4607 11.0331 12.6297 11.5581ZM15.7391 10.5571C15.9081 11.0821 15.6191 11.6461 15.0941 11.8151C14.5681 11.9851 14.0051 11.6961 13.8351 11.1691C13.6661 10.6441 13.9551 10.0801 14.4811 9.9111C15.0071 9.7421 15.5701 10.0311 15.7391 10.5571ZM10.2344 3.72823L12.1914 5.68323C12.5821 6.07356 12.5824 6.70672 12.1921 7.09745C11.8318 7.45812 11.2282 7.51643 10.7779 7.09817C10.1482 6.47254 9.52042 5.84534 8.89459 5.21656L8.80159 5.24156L9.55676 6.80208C9.80175 7.34762 9.55388 7.91442 9.09226 8.13783C8.63064 8.36123 8.03317 8.19916 7.75651 7.67333L6.86228 5.82312C6.37887 4.5431 7.08858 3.87992 7.61661 3.57533C7.75554 3.49518 7.89439 3.43031 8.03317 3.38069C8.17894 3.33842 8.32523 3.29749 8.47205 3.25789C9.05399 3.09693 9.74257 3.21981 10.2344 3.72823Z" fill="#1A1C1F"/>
</g>
<defs>
<clipPath id="clip0_187_816">
<rect width="24" height="24" fill="white"/>
</clipPath>
</defs>
</svg>

<svg xmlns="http://www.w3.org/2000/svg" width="24" height="24" fill="none"><g clip-path="url(#a)"><path fill="#1A1C1F" fill-rule="evenodd" d="M14.576 7.284c2.965-.955 6.749.102 7.46 2.478.457 1.518-.573 3.32-2.275 3.846q-1.71.538-3.422 1.073l-2.826 5.166c-.195.323-.685.719-1.065.808a9 9 0 0 1-.492.121c-1.005.201-2.03-.567-2.041-1.695q-.014-1.183-.021-2.367l-1.835.562c-1.864.503-3.8-.49-4.44-2.287l-1.693-4.756a1.666 1.666 0 0 1 .837-1.962l.608-.25a2.11 2.11 0 0 1 2.134.301q.811.64 1.618 1.285zm3.047 1.693c-.683-.087-1.704-.047-2.443.213q-2.326.721-7.967 2.483a1 1 0 0 1-.919-.171q-1.02-.805-2.034-1.615c-.032-.025-.058-.034-.095-.026l-.22.085 1.559 4.376c.271.77 1.123 1.302 2.15.988l2.935-.902c.602-.185 1.32.273 1.294.947q.016 1.627.027 3.256l2.868-5.244c.104-.19.316-.393.579-.475l3.81-1.194c.668-.206 1.208-.955.872-1.54l-1.429.524a1 1 0 0 1-1.283-.595.98.98 0 0 1 .296-1.11M9.52 12.56a1 1 0 1 1-1.904.612 1 1 0 0 1 1.904-.612m3.11-1.002a1 1 0 1 1-1.902.615 1 1 0 0 1 1.902-.615m3.11-1a1 1 0 1 1-1.906.611 1 1 0 0 1 1.905-.612m-5.506-6.83 1.957 1.955a1 1 0 0 1 .001 1.414c-.36.361-.964.42-1.414.001q-.945-.938-1.883-1.881l-.093.025.755 1.56a1.006 1.006 0 0 1-.465 1.336 1.01 1.01 0 0 1-1.335-.465l-.895-1.85c-.483-1.28.227-1.943.755-2.248q.208-.12.416-.194.219-.065.439-.123a1.78 1.78 0 0 1 1.762.47" clip-rule="evenodd"/></g><defs><clipPath id="a"><path fill="#fff" d="M0 0h24v24H0z"/></clipPath></defs></svg>
